X:38
T:Ca the Yowes to the Knowes
C:arr. Carlo Minasi
M:2/4
L:1/8
B:Chappell's One Hundred Scotch Melodies
B:Arranged for the Concertina by Carlo Minasi
Q:"Moderato  "1/4=120
Z:Peter Dunk 2012
K:D
E>F [B2G2]|[AF]<[FD] [A2F2]|(F>E D)d|([cA]>[dB]) [e2c2]|\
([fA]>[BG]) [BG]>[BG]|([AF]d) [F2D2]|\
([E2C2][FD])>A|[B2-F2-D2-B,2-][BFDB,] z||
E>F [BG]>B|([AF]>[FD]) [A2F2]|(F>E D)d|([cA]>[dB]) [e2c2]|\
([f^A]>[BG]) [BG]>[BG]|([AF]d) [F2D2]|\
([E2C2][FD])>A|[B2-F2-D2-B,2-][BFDB,] z||

